usr/share/icons/biglinux-icons-material/22/actions/aggregation.svg

<svg xmlns="http://www.w3.org/2000/svg" viewBox="0 0 22 22">
  <defs id="defs3051">
    <style type="text/css" id="current-color-scheme">
      .ColorScheme-Text {
        color:#dedede;
      }
      </style>
  </defs>
 <path 
     style="fill:currentColor;fill-opacity:1;stroke:none" 
     d="M 10 3 L 10 11.666016 L 7.5 15 L 10.5 19 L 13.5 15 L 11 11.666016 L 11 3 L 10 3 z M 10.5 12.667969 L 12.25 15 L 10.5 17.332031 L 8.75 15 L 10.5 12.667969 z "
     class="ColorScheme-Text"
     />
 <path 
     style="fill:currentColor;fill-opacity:0.5;stroke:none" 
     d="M 10.5 12.667969 L 8.75 15 L 10.5 17.332031 L 12.25 15 L 10.5 12.667969 z "
     class="ColorScheme-Text"
     />
</svg>

<svg xmlns="http://www.w3.org/2000/svg" viewBox="0 0 22 22"><defs id="defs3051"><style id="current-color-scheme" type="text/css">.ColorScheme-Text{color:#dedede}</style></defs><path d="M10 3v8.666L7.5 15l3 4 3-4-2.5-3.334V3h-1zm.5 9.668L12.25 15l-1.75 2.332L8.75 15l1.75-2.332z" class="ColorScheme-Text" style="fill:currentColor;fill-opacity:1;stroke:none"/><path d="M10.5 12.668 8.75 15l1.75 2.332L12.25 15l-1.75-2.332z" class="ColorScheme-Text" style="fill:currentColor;fill-opacity:.5;stroke:none"/></svg>
